X: 201
T: Mrs GENERAL MAXWELL OF PARKHILL
C: M. McDONALD
R: Reel
B: Glen Collection p.20 #2
Z: 2011 John Chambers <jc:trillian.mit.edu>
M: C|
L: 1/8
V: 1 middle=B clef=treble
V: 2 middle=d clef=bass
%%score {1 | 2}
K: C
%
V: 1
G |\
c2(ec) dGBG | c2(ec) dAAB | c2(ec) dGBG | cAGc ECC :|
e |\
gagf ecce | gage fdde | gagf ecaf | ecGB c2-ce |
gagf ecce | gage fddf | eceg fagf | ecdB c2c |]
%
V: 2
z |\
c2[c'2g2] g2[d'2b2] | c2[c'2g2] g2[f'2d'2] |\
[e'2c'2][c'2g2] [b2g2][d'2g2] | f2e2 c2[gec] :|
z |\
c2[c'2g2] [c'2g2][c'2g2] | c2[c'2g2] G2[b2g2] |\
c2[c'2g2] [c'2g2][c'2f2] | [c'2g2][d'2g2] [e'2c'2]c'2 |
c2[c'2g2] [c'2g2][c'2g2] | c2[c'2g2] G2[b2g2] |\
c2[c'2g2] [c'2a2][d'2b2] | c'2g2 c2[c'gec] |]
